X:5506
T:Reel. JMT114
O:england
M:4/4
L:1/8
S:J.Moore,Tyneside,1841.(80b)
R:Reel
A:Northumbria
K:C
GB|c2ecA2dc|B-dgf e-dcB|c2ecA2dc|BGABc2:|
|:cd|e2egf2fa|g-agf fedc|e2egf2fa|gagec2:|]


